src/activities/babyshapes/resource/food/milk_shake.svg

<?xml version="1.0" encoding="UTF-8" standalone="no"?>
<svg
   xmlns:dc="http://purl.org/dc/elements/1.1/"
   xmlns:cc="http://creativecommons.org/ns#"
   xmlns:rdf="http://www.w3.org/1999/02/22-rdf-syntax-ns#"
   xmlns:svg="http://www.w3.org/2000/svg"
   xmlns="http://www.w3.org/2000/svg"
   xmlns:xlink="http://www.w3.org/1999/xlink"
   version="1.0"
   xml:space="preserve"
   height="100"
   width="100"
   id="svg962"><metadata
     id="metadata35"><rdf:RDF><cc:Work
         rdf:about=""><dc:format>image/svg+xml</dc:format><dc:type
           rdf:resource="http://purl.org/dc/dcmitype/StillImage" /><dc:title></dc:title><dc:date>2021</dc:date><dc:creator><cc:Agent><dc:title>Timothée Giet</dc:title></cc:Agent></dc:creator><cc:license
           rdf:resource="http://creativecommons.org/licenses/by-sa/4.0/" /></cc:Work><cc:License
         rdf:about="http://creativecommons.org/licenses/by-sa/4.0/"><cc:permits
           rdf:resource="http://creativecommons.org/ns#Reproduction" /><cc:permits
           rdf:resource="http://creativecommons.org/ns#Distribution" /><cc:requires
           rdf:resource="http://creativecommons.org/ns#Notice" /><cc:requires
           rdf:resource="http://creativecommons.org/ns#Attribution" /><cc:permits
           rdf:resource="http://creativecommons.org/ns#DerivativeWorks" /><cc:requires
           rdf:resource="http://creativecommons.org/ns#ShareAlike" /></cc:License></rdf:RDF></metadata><defs
     id="defs964"><linearGradient
       id="linearGradient1077"><stop
         id="stop1073"
         offset="0"
         style="stop-color:#ffffff;stop-opacity:1;" /><stop
         id="stop1075"
         offset="1"
         style="stop-color:#ffffff;stop-opacity:0;" /></linearGradient><linearGradient
       id="linearGradient1069"><stop
         id="stop1065"
         offset="0"
         style="stop-color:#ffffff;stop-opacity:1;" /><stop
         id="stop1067"
         offset="1"
         style="stop-color:#ffffff;stop-opacity:0;" /></linearGradient><linearGradient
       gradientUnits="userSpaceOnUse"
       y2="50"
       x2="80"
       y1="50"
       x1="0"
       id="linearGradient1071"
       xlink:href="#linearGradient1069"
       gradientTransform="matrix(0.75568378,0,0,0.75568378,12.21581,23.837604)" /><linearGradient
       gradientUnits="userSpaceOnUse"
       y2="80"
       x2="80"
       y1="80"
       x1="0"
       id="linearGradient1079"
       xlink:href="#linearGradient1077"
       gradientTransform="matrix(0.75568378,0,0,0.75568378,12.21581,23.837604)" /></defs><path
     id="rect840"
     d="m 23.965686,23.867211 c -0.698895,-10.910118 52.767525,-10.910118 52.068627,0 l -4.169351,65.085784 c -0.698898,10.910118 -43.03103,10.910118 -43.729925,0 z"
     style="opacity:1;vector-effect:none;fill:#ffffff;fill-opacity:0.37647059;stroke:#ffffff;stroke-width:0.72883207;stroke-linecap:round;stroke-linejoin:miter;stroke-miterlimit:4;stroke-dasharray:none;stroke-dashoffset:3.20000005;stroke-opacity:1" /><path
     id="rect840-3"
     d="m 28.135037,78.020515 c 0,-10.932481 43.729925,-10.932481 43.729925,0 v 10.932481 c 0,10.932483 -43.729925,10.932483 -43.729925,0 z"
     style="opacity:1;vector-effect:none;fill:url(#linearGradient1079);fill-opacity:1;stroke:none;stroke-width:0.51018244;stroke-linecap:round;stroke-linejoin:miter;stroke-miterlimit:4;stroke-dasharray:none;stroke-dashoffset:3.20000005;stroke-opacity:1" /><path
     id="rect840-6-5-3"
     d="m 28.132638,52.088022 c -0.651026,-10.913081 44.385742,-10.913081 43.734722,0 L 70.4073,76.56285 c -0.65103,10.913081 -40.163573,10.913081 -40.8146,0 z"
     style="opacity:1;vector-effect:none;fill:#cba369;fill-opacity:1;stroke:none;stroke-width:0.51018244;stroke-linecap:round;stroke-linejoin:miter;stroke-miterlimit:4;stroke-dasharray:none;stroke-dashoffset:3.20000005;stroke-opacity:1" /><path
     style="opacity:1;vector-effect:none;fill:#ad3c3c;fill-opacity:1;stroke:none;stroke-width:4.1693511;stroke-linecap:square;stroke-linejoin:round;stroke-miterlimit:4;stroke-dasharray:none;stroke-dashoffset:3.20000005;stroke-opacity:1"
     d="m 66.84638,2.5016957 c -1.23591,-0.044235 -2.3673,0.7807822 -2.66896,2.0317444 L 52.6262,52.438226 c 0.18096,1.068777 0.97706,1.976521 2.10097,2.247541 l 0.63924,0.152687 c 1.28318,0.309429 2.55766,-0.316506 3.13312,-1.439322 L 69.94692,5.9259382 C 70.29168,4.4962671 69.41814,3.0663184 67.98847,2.7215638 L 67.38179,2.5770209 c -0.1787,-0.043095 -0.35885,-0.069006 -0.53541,-0.075325 z"
     id="rect839" /><path
     id="rect840-6-5"
     d="m 28.132638,52.816854 c 0,10.932481 43.734722,10.932481 43.734722,0 L 70.4073,76.56285 c -0.67094,10.911875 -40.143664,10.911875 -40.8146,0 z"
     style="opacity:1;vector-effect:none;fill:#cc8e41;fill-opacity:1;stroke:none;stroke-width:0.51018244;stroke-linecap:round;stroke-linejoin:miter;stroke-miterlimit:4;stroke-dasharray:none;stroke-dashoffset:3.20000005;stroke-opacity:1" /><path
     style="opacity:1;vector-effect:none;fill:#c65c5c;fill-opacity:1;stroke:none;stroke-width:3.07969713;stroke-linecap:square;stroke-linejoin:round;stroke-miterlimit:4;stroke-dasharray:none;stroke-dashoffset:3.20000005;stroke-opacity:1"
     d="M 65.41113,5.3274083 C 65.22738,5.3356983 65.07646,5.5154455 64.949,6.0440156 L 53.66667,52.608363 c 0.35277,0.355103 0.80103,0.626822 1.32533,0.753251 l 0.63924,0.152687 c 0.40486,0.09763 0.80641,0.09675 1.18891,0.02239 L 68.14116,6.8155899 C 68.48105,5.4060698 67.55556,6.1249228 66.6713,5.9116876 66.11863,5.7784155 65.71738,5.3136047 65.41113,5.3274083 Z"
     id="rect839-3" /><path
     id="rect840-6"
     d="m 23.965686,23.867211 c 0,10.932482 52.068627,10.932482 52.068627,0 l -4.169351,54.153304 c -0.839228,10.900221 -42.890699,10.900221 -43.729925,0 z"
     style="opacity:1;vector-effect:none;fill:url(#linearGradient1071);fill-opacity:1;stroke:#ffffff;stroke-width:0.72847915;stroke-linecap:round;stroke-linejoin:miter;stroke-miterlimit:4;stroke-dasharray:none;stroke-dashoffset:3.20000005;stroke-opacity:1" /><ellipse
     style="opacity:1;vector-effect:none;fill:#8b3939;fill-opacity:1;stroke:none;stroke-width:3.82294846;stroke-linecap:square;stroke-linejoin:round;stroke-miterlimit:4;stroke-dasharray:none;stroke-dashoffset:3.20000005;stroke-opacity:1"
     id="path895"
     cx="65.864418"
     cy="-9.9795246"
     rx="1.7505684"
     ry="1.0773869"
     transform="matrix(0.97801071,0.20855468,-0.29074524,0.9568005,0,0)" /></svg>

<svg xmlns:dc="http://purl.org/dc/elements/1.1/" xmlns:cc="http://creativecommons.org/ns#" xmlns:rdf="http://www.w3.org/1999/02/22-rdf-syntax-ns#" xmlns="http://www.w3.org/2000/svg" xmlns:xlink="http://www.w3.org/1999/xlink" version="1.0" xml:space="preserve" height="100" width="100"><metadata><rdf:RDF><cc:Work><dc:format>image/svg+xml</dc:format><dc:type rdf:resource="http://purl.org/dc/dcmitype/StillImage"/><dc:title/><dc:date>2021</dc:date><dc:creator><cc:Agent><dc:title>Timothée Giet</dc:title></cc:Agent></dc:creator><cc:license rdf:resource="http://creativecommons.org/licenses/by-sa/4.0/"/></cc:Work><cc:License rdf:about="http://creativecommons.org/licenses/by-sa/4.0/"><cc:permits rdf:resource="http://creativecommons.org/ns#Reproduction"/><cc:permits rdf:resource="http://creativecommons.org/ns#Distribution"/><cc:requires rdf:resource="http://creativecommons.org/ns#Notice"/><cc:requires rdf:resource="http://creativecommons.org/ns#Attribution"/><cc:permits rdf:resource="http://creativecommons.org/ns#DerivativeWorks"/><cc:requires rdf:resource="http://creativecommons.org/ns#ShareAlike"/></cc:License></rdf:RDF></metadata><defs><linearGradient id="b"><stop offset="0" style="stop-color:#fff;stop-opacity:1"/><stop offset="1" style="stop-color:#fff;stop-opacity:0"/></linearGradient><linearGradient id="a"><stop offset="0" style="stop-color:#fff;stop-opacity:1"/><stop offset="1" style="stop-color:#fff;stop-opacity:0"/></linearGradient><linearGradient gradientUnits="userSpaceOnUse" y2="50" x2="80" y1="50" x1="0" id="d" xlink:href="#a" gradientTransform="matrix(.75568 0 0 .75568 12.216 23.838)"/><linearGradient gradientUnits="userSpaceOnUse" y2="80" x2="80" y1="80" x1="0" id="c" xlink:href="#b" gradientTransform="matrix(.75568 0 0 .75568 12.216 23.838)"/></defs><path d="M23.966 23.867c-.7-10.91 52.767-10.91 52.068 0l-4.169 65.086c-.699 10.91-43.031 10.91-43.73 0z" style="opacity:1;vector-effect:none;fill:#fff;fill-opacity:.37647059;stroke:#fff;stroke-width:.72883207;stroke-linecap:round;stroke-linejoin:miter;stroke-miterlimit:4;stroke-dasharray:none;stroke-dashoffset:3.20000005;stroke-opacity:1"/><path d="M28.135 78.02c0-10.932 43.73-10.932 43.73 0v10.933c0 10.932-43.73 10.932-43.73 0z" style="opacity:1;vector-effect:none;fill:url(#c);fill-opacity:1;stroke:none;stroke-width:.51018244;stroke-linecap:round;stroke-linejoin:miter;stroke-miterlimit:4;stroke-dasharray:none;stroke-dashoffset:3.20000005;stroke-opacity:1"/><path d="M28.133 52.088c-.651-10.913 44.385-10.913 43.734 0l-1.46 24.475c-.65 10.913-40.163 10.913-40.814 0z" style="opacity:1;vector-effect:none;fill:#cba369;fill-opacity:1;stroke:none;stroke-width:.51018244;stroke-linecap:round;stroke-linejoin:miter;stroke-miterlimit:4;stroke-dasharray:none;stroke-dashoffset:3.20000005;stroke-opacity:1"/><path style="opacity:1;vector-effect:none;fill:#ad3c3c;fill-opacity:1;stroke:none;stroke-width:4.1693511;stroke-linecap:square;stroke-linejoin:round;stroke-miterlimit:4;stroke-dasharray:none;stroke-dashoffset:3.20000005;stroke-opacity:1" d="M66.846 2.502a2.648 2.648 0 0 0-2.669 2.031l-11.55 47.905a2.788 2.788 0 0 0 2.1 2.248l.64.152A2.78 2.78 0 0 0 58.5 53.4L69.947 5.926a2.65 2.65 0 0 0-1.959-3.204l-.606-.145a2.704 2.704 0 0 0-.536-.075z"/><path d="M28.133 52.817c0 10.932 43.734 10.932 43.734 0l-1.46 23.746c-.67 10.912-40.143 10.912-40.814 0z" style="opacity:1;vector-effect:none;fill:#cc8e41;fill-opacity:1;stroke:none;stroke-width:.51018244;stroke-linecap:round;stroke-linejoin:miter;stroke-miterlimit:4;stroke-dasharray:none;stroke-dashoffset:3.20000005;stroke-opacity:1"/><path style="opacity:1;vector-effect:none;fill:#c65c5c;fill-opacity:1;stroke:none;stroke-width:3.07969713;stroke-linecap:square;stroke-linejoin:round;stroke-miterlimit:4;stroke-dasharray:none;stroke-dashoffset:3.20000005;stroke-opacity:1" d="M65.411 5.327c-.184.009-.335.188-.462.717L53.667 52.608c.352.355.8.627 1.325.754l.64.152a2.78 2.78 0 0 0 1.188.023L68.141 6.816c.34-1.41-.585-.691-1.47-.904-.552-.134-.954-.598-1.26-.585z"/><path d="M23.966 23.867c0 10.933 52.068 10.933 52.068 0l-4.169 54.154c-.84 10.9-42.89 10.9-43.73 0z" style="opacity:1;vector-effect:none;fill:url(#d);fill-opacity:1;stroke:#fff;stroke-width:.72847915;stroke-linecap:round;stroke-linejoin:miter;stroke-miterlimit:4;stroke-dasharray:none;stroke-dashoffset:3.20000005;stroke-opacity:1"/><ellipse style="opacity:1;vector-effect:none;fill:#8b3939;fill-opacity:1;stroke:none;stroke-width:3.82294846;stroke-linecap:square;stroke-linejoin:round;stroke-miterlimit:4;stroke-dasharray:none;stroke-dashoffset:3.20000005;stroke-opacity:1" cx="65.864418" cy="-9.9795246" rx="1.7505684" ry="1.0773869" transform="matrix(.97801 .20855 -.29075 .9568 0 0)"/></svg>
